X: 2618
T: Baltiorum, The
R: slip jig
M: 9/8
K: Gmajor
|:d|g2 g ege dBG|g2 g ege f2 d|g2 g ege dBG|A2 g ege f2:|
|:d|BAG cBA dBG|BAG cBA d2 G|BAG cBA dBG|A2g ege f2:|

